_includes/icons/ios-hierarchy.svg

<svg fill="#666" height="50" viewBox="0 0 50 50" width="50" xmlns="http://www.w3.org/2000/svg"><path d="m21 7c-1.644531 0-3 1.355469-3 3v5c0 1.644531 1.355469 3 3 3h3v4h-13c-2.746094 0-5 2.253906-5 5v5h-3c-1.644531 0-3 1.355469-3 3v5c0 1.644531 1.355469 3 3 3h8c1.644531 0 3-1.355469 3-3v-5c0-1.644531-1.355469-3-3-3h-3v-5c0-1.65625 1.34375-3 3-3h13v8h-3c-1.644531 0-3 1.355469-3 3v5c0 1.644531 1.355469 3 3 3h8c1.644531 0 3-1.355469 3-3v-5c0-1.644531-1.355469-3-3-3h-3v-8h13c1.65625 0 3 1.34375 3 3v5h-3c-1.644531 0-3 1.355469-3 3v5c0 1.644531 1.355469 3 3 3h8c1.644531 0 3-1.355469 3-3v-5c0-1.644531-1.355469-3-3-3h-3v-5c0-2.746094-2.253906-5-5-5h-13v-4h3c1.644531 0 3-1.355469 3-3v-5c0-1.644531-1.355469-3-3-3zm0 2h8c.554688 0 1 .445313 1 1v5c0 .554688-.445312 1-1 1h-8c-.554687 0-1-.445312-1-1v-5c0-.554687.445313-1 1-1zm-18 25h8c.554688 0 1 .445313 1 1v5c0 .554688-.445312 1-1 1h-8c-.554687 0-1-.445312-1-1v-5c0-.554687.445313-1 1-1zm18 0h8c.554688 0 1 .445313 1 1v5c0 .554688-.445312 1-1 1h-8c-.554687 0-1-.445312-1-1v-5c0-.554687.445313-1 1-1zm18 0h8c.554688 0 1 .445313 1 1v5c0 .554688-.445312 1-1 1h-8c-.554687 0-1-.445312-1-1v-5c0-.554687.445313-1 1-1z"/></svg>

<svg xmlns="http://www.w3.org/2000/svg" viewBox="0 0 50 50" width="50" height="50" fill="#666"><path d="M 21 7 C 19.355469 7 18 8.355469 18 10 L 18 15 C 18 16.644531 19.355469 18 21 18 L 24 18 L 24 22 L 11 22 C 8.253906 22 6 24.253906 6 27 L 6 32 L 3 32 C 1.355469 32 0 33.355469 0 35 L 0 40 C 0 41.644531 1.355469 43 3 43 L 11 43 C 12.644531 43 14 41.644531 14 40 L 14 35 C 14 33.355469 12.644531 32 11 32 L 8 32 L 8 27 C 8 25.34375 9.34375 24 11 24 L 24 24 L 24 32 L 21 32 C 19.355469 32 18 33.355469 18 35 L 18 40 C 18 41.644531 19.355469 43 21 43 L 29 43 C 30.644531 43 32 41.644531 32 40 L 32 35 C 32 33.355469 30.644531 32 29 32 L 26 32 L 26 24 L 39 24 C 40.65625 24 42 25.34375 42 27 L 42 32 L 39 32 C 37.355469 32 36 33.355469 36 35 L 36 40 C 36 41.644531 37.355469 43 39 43 L 47 43 C 48.644531 43 50 41.644531 50 40 L 50 35 C 50 33.355469 48.644531 32 47 32 L 44 32 L 44 27 C 44 24.253906 41.746094 22 39 22 L 26 22 L 26 18 L 29 18 C 30.644531 18 32 16.644531 32 15 L 32 10 C 32 8.355469 30.644531 7 29 7 Z M 21 9 L 29 9 C 29.554688 9 30 9.445313 30 10 L 30 15 C 30 15.554688 29.554688 16 29 16 L 21 16 C 20.445313 16 20 15.554688 20 15 L 20 10 C 20 9.445313 20.445313 9 21 9 Z M 3 34 L 11 34 C 11.554688 34 12 34.445313 12 35 L 12 40 C 12 40.554688 11.554688 41 11 41 L 3 41 C 2.445313 41 2 40.554688 2 40 L 2 35 C 2 34.445313 2.445313 34 3 34 Z M 21 34 L 29 34 C 29.554688 34 30 34.445313 30 35 L 30 40 C 30 40.554688 29.554688 41 29 41 L 21 41 C 20.445313 41 20 40.554688 20 40 L 20 35 C 20 34.445313 20.445313 34 21 34 Z M 39 34 L 47 34 C 47.554688 34 48 34.445313 48 35 L 48 40 C 48 40.554688 47.554688 41 47 41 L 39 41 C 38.445313 41 38 40.554688 38 40 L 38 35 C 38 34.445313 38.445313 34 39 34 Z"/></svg>
